themes/default/assets/images/icons/mid/formal-interview.svg

<?xml version="1.0" encoding="UTF-8"?>
<svg width="100px" height="75px" viewBox="0 0 100 75" version="1.1" xmlns="http://www.w3.org/2000/svg" xmlns:xlink="http://www.w3.org/1999/xlink">
    <!-- Generator: sketchtool 59 (101010) - https://sketch.com -->
    <title>89DFBB9D-9EB6-4FC5-A7A3-D8192BB5E7C1</title>
    <desc>Created with sketchtool.</desc>
    <g id="Page-1" stroke="none" stroke-width="1" fill="none" fill-rule="evenodd">
        <g id="Icons" transform="translate(-614.000000, -2930.000000)" fill-rule="nonzero">
            <g id="mid-icon-formalinterview" transform="translate(614.000000, 2930.000000)">
                <path d="M21.6336634,24.5921053 C21.2958135,24.7959891 21.1571872,25.214687 21.3069307,25.5789474 L25.5247525,34.8848684 C25.6303063,35.1367179 25.8747441,35.3030076 26.1485149,35.3092105 C26.2523609,35.3064387 26.3541024,35.2793969 26.4455446,35.2302632 C26.790724,35.0320078 26.9279521,34.6045805 26.7623762,34.2434211 L22.5544554,24.9276316 C22.4837372,24.7555594 22.3435909,24.6211219 22.1683708,24.5572736 C21.9931506,24.4934254 21.7990553,24.506069 21.6336634,24.5921053 Z" id="Path" fill="#A8C5DD"></path>
                <path d="M41.049505,33.8289474 C40.6339243,33.8289474 40.2970297,34.1647338 40.2970297,34.5789474 C40.2970297,34.9931609 40.6339243,35.3289474 41.049505,35.3289474 C43.1188119,35.3289474 44.4059406,34.7072368 44.4059406,31.6085526 C44.4319367,30.8084737 44.1442812,30.0297572 43.6039604,29.4375 C42.8559732,28.7611643 41.8703347,28.4065086 40.8613861,28.4506579 L30.3960396,28.4506579 L25.6435644,16.0164474 C25.5839402,15.8391657 25.4528105,15.6947172 25.2817744,15.6179104 C25.1107382,15.5411037 24.9153068,15.5389042 24.7425743,15.6118421 C24.6705766,15.6437846 24.6063928,15.6909224 24.5544554,15.75 C22.8165125,14.7699079 20.6710895,14.8578908 19.019802,15.9769737 C14.1485149,19.2039474 13.2871287,28.5296053 13.2475248,28.9539474 L12.7227723,41.6447368 C12.5841584,46.0657895 13.4752475,49.4013158 15.3861386,51.5131579 L15.3861386,51.5131579 C12.6117548,50.3782429 10.5429493,47.9976031 9.81188119,45.0986842 L7.16831683,22.7467105 C6.36633663,15.7894737 1.23762376,13.4111842 0.99009901,13.3125 C0.815820158,13.2430257 0.620539398,13.2480817 0.450114417,13.3264806 C0.279689435,13.4048796 0.149134915,13.5497144 0.0891089109,13.7269737 C-0.0672009529,14.1033273 0.0977203011,14.535903 0.465346535,14.7138158 C3.51810719,16.384928 5.51520359,19.4821286 5.77227723,22.9440789 L8.46534653,45.3947368 C9.74268595,50.4846259 14.3910443,54.0106774 19.6534653,53.8815789 L20.029703,53.8815789 L21.2376238,53.8815789 L21.2376238,72.4342105 L13.9405941,72.4342105 C13.5250135,72.4342106 13.1881189,72.769997 13.1881189,73.1842105 C13.1881189,73.5984241 13.5250135,73.9342105 13.9405941,73.9342105 L29.9306931,73.9342105 C30.3462737,73.9342105 30.6831683,73.5984241 30.6831683,73.1842105 C30.6831683,72.769997 30.3462737,72.4342105 29.9306931,72.4342105 L22.6237624,72.4342105 L22.6237624,53.8815789 L31.5346535,53.8815789 L35.2970297,70.8256579 C35.4902431,71.8317078 36.0294634,72.739085 36.8217822,73.3914474 C37.3781891,73.8066927 38.0574892,74.0254369 38.7524752,74.013648 C39.0555071,74.0129259 39.3576144,73.9798365 39.6534653,73.9144737 C40.8224997,73.7272695 41.8522447,73.043031 42.4752475,72.0394737 C42.9443183,71.1810985 43.101698,70.1876392 42.9207921,69.2269737 C42.9207921,69.0592105 39.5841584,52.5592105 38.8910891,48.0296053 C38.5475935,45.090685 36.1585977,42.8089343 33.1980198,42.5921053 L28.4059406,42.5921053 C27.5923122,42.537729 26.8368962,42.1523424 26.3168317,41.5263158 C25.1188119,40.2236842 24.5742574,37.8157895 24.7326733,34.6184211 C24.7468224,34.3716257 24.6277985,34.1360538 24.4204366,34.000443 C24.2130748,33.8648321 23.9488783,33.8497848 23.7273673,33.9609693 C23.5058564,34.0721537 23.3606838,34.2926784 23.3465347,34.5394737 C23.1683168,38.2697368 23.8415842,40.9835526 25.3267327,42.6217105 C26.1091893,43.5301848 27.2353582,44.0735434 28.4356436,44.1217105 L33.1683168,44.1217105 C35.458766,44.2922902 37.2956879,46.0773976 37.5247525,48.3552632 C38.2277228,52.875 41.5841584,69.4046053 41.5841584,69.5921053 C41.6959806,70.1609398 41.6049273,70.7508391 41.3267327,71.2598684 C40.8828035,71.9117531 40.1799541,72.3428531 39.3960396,72.4440789 C38.7629442,72.6070181 38.089933,72.4805634 37.5598108,72.0990628 C37.0296887,71.7175621 36.6974966,71.1206258 36.6534653,70.4703947 L32.6039604,52.3815789 L20.039604,52.3815789 C18.6155984,52.2580106 17.3002131,51.5722809 16.3861386,50.4769737 C14.7425743,48.6217105 13.980198,45.6611842 14.1089109,41.6644737 L14.6237624,29.0230263 C14.6237624,28.9342105 15.4653465,20.0526316 19.7722772,17.1809211 C21.3522396,16.1217567 23.4647882,16.3331456 24.8019802,17.6842105 L29.4653465,29.9013158 L40.8811881,29.9013158 C41.5254562,29.8849134 42.1530922,30.1063236 42.6435644,30.5230263 C42.9104376,30.8196558 43.0460715,31.2109888 43.019802,31.6085526 C43.019802,33.7401316 42.4554455,33.8289474 41.049505,33.8289474 Z" id="Path" fill="#A8C5DD"></path>
                <path d="M24.7524752,16.9144737 C20.4257426,16.9144737 16.9009901,13.1151316 16.9009901,8.45723684 C16.9009901,3.79934211 20.4554455,0 24.7524752,0 C29.049505,0 32.6732673,3.78947368 32.6732673,8.45723684 C32.6732673,13.125 29.1089109,16.9144737 24.7524752,16.9144737 Z M24.7524752,1.5 C21.0550637,1.66550193 18.1826684,4.77069787 18.3168317,8.45723684 C18.2107558,12.1358826 21.0929276,15.2153369 24.7821782,15.3651316 C28.4699329,15.2153392 31.3492382,12.1342292 31.2376238,8.45723684 C31.304492,6.6771703 30.6585311,4.94364416 29.4420777,3.63863869 C28.2256243,2.33363322 26.5385053,1.56424221 24.7524752,1.5 Z" id="Shape" fill="#032663"></path>
                <path d="M72.990099,35.3289474 C73.2638697,35.3227445 73.5083076,35.1564548 73.6138614,34.9046053 L77.8217822,25.5986842 C77.9824868,25.2372497 77.8463239,24.8131402 77.5049505,24.6118421 C77.3378008,24.5294413 77.1438492,24.5198284 76.9693223,24.5852945 C76.7947954,24.6507606 76.6553271,24.7854414 76.5841584,24.9572368 L72.3762376,34.2532895 C72.2106617,34.6144489 72.3478899,35.0418762 72.6930693,35.2401316 C72.7836484,35.2927113 72.8854394,35.3231481 72.990099,35.3289474 Z" id="Path" fill="#A8C5DD"></path>
                <path d="M99.009901,13.7269737 C98.9523795,13.5478989 98.8221184,13.4010924 98.6508326,13.3222974 C98.4795468,13.2435025 98.282951,13.2399482 98.1089109,13.3125 C94.5829497,15.1840738 92.2657773,18.7266257 91.970297,22.6973684 L89.3168317,45.0690789 C88.5672161,47.956609 86.515165,50.3336789 83.7623762,51.5032895 C85.6633663,49.3519737 86.5544554,46.0263158 86.4158416,41.6348684 L85.8910891,29.0131579 C85.8910891,28.6973684 86.1188119,21.2664474 82.0792079,17.4572368 C80.049505,15.5526316 77.3366337,14.9111842 74.009901,15.5625 L73.9405941,15.5625 L73.8118812,15.6217105 L73.7029703,15.7006579 L73.6138614,15.7993421 C73.5818074,15.8383723 73.5551659,15.8815223 73.5346535,15.9276316 L73.5346535,15.9868421 L73.1980198,16.875 C73.0523592,16.7215312 72.8450005,16.6417613 72.6336634,16.6578947 L60.3960396,18.2269737 L55.4455446,9.96710526 C54.7920792,8.68421053 52.9009901,6.62171053 50.4356436,7.99342105 C49.5877807,8.4400748 48.9613034,9.21435133 48.7029703,10.1348684 C48.4774818,11.1556684 48.613939,12.2228111 49.0891089,13.1546053 L53.7920792,22.5690789 C54.6327709,24.3474402 56.4140687,25.4953528 58.3861386,25.5296053 C58.7191872,25.5300915 59.0512585,25.4936839 59.3762376,25.4210526 L70.4356436,23.9802632 L68.7425743,28.4111842 L58.2970297,28.4111842 C57.2810079,28.3595432 56.2864306,28.7148499 55.5346535,29.3980263 C54.9943327,29.9902835 54.7066772,30.7690001 54.7326733,31.5690789 C54.7326733,34.6677632 56.019802,35.2894737 58.0891089,35.2894737 C58.5046895,35.2894737 58.8415842,34.9536872 58.8415842,34.5394737 C58.8415842,34.1252601 58.5046895,33.7894737 58.0891089,33.7894737 C56.6831683,33.7894737 56.1089109,33.7006579 56.1089109,31.5690789 C56.0826414,31.1715151 56.2182753,30.7801821 56.4851485,30.4835526 C56.9812164,30.0630607 57.6164445,29.8414622 58.2673267,29.8618421 L69.6732673,29.8618421 L74.6237624,16.9046053 C77.3465347,16.4605263 79.5742574,16.9934211 81.1683168,18.5230263 C84.7128713,21.8486842 84.5148515,28.8157895 84.5049505,28.9440789 L85.029703,41.625 C85.1584158,45.5723684 84.4059406,48.5328947 82.7722772,50.4078947 C81.8666309,51.5345557 80.5411122,52.2467704 79.0990099,52.3815789 L66.5346535,52.3815789 L62.5049505,70.5493421 C62.3646972,71.1808036 62.0160882,71.747167 61.5148515,72.1578947 C60.9892221,72.5124275 60.3332198,72.6171871 59.7227723,72.4440789 C58.9453992,72.3461169 58.2467623,71.9225706 57.8019802,71.2796053 C57.5167264,70.7587143 57.4222134,70.1551231 57.5346535,69.5723684 C57.5346535,69.4046053 60.8712871,52.875 61.5742574,48.3059211 C61.8373674,46.0681948 63.6395105,44.3214169 65.8910891,44.1217105 L70.6336634,44.1217105 C71.8450109,44.0841176 72.9844103,43.5395781 73.7722772,42.6217105 C75.2574257,40.9835526 75.9306931,38.2697368 75.7524752,34.5394737 C75.7369572,34.1498399 75.4207995,33.8390389 75.029703,33.8289474 C74.6283741,33.8654821 74.3319905,34.2182088 74.3663366,34.6184211 C74.5247525,37.8355263 73.980198,40.2335526 72.8118812,41.5263158 C72.2816577,42.1743466 71.5012092,42.5686643 70.6633663,42.6118421 L65.9009901,42.6118421 C62.9556552,42.8383334 60.5849169,45.11437 60.2475248,48.0394737 C59.5544554,52.5690789 56.2871287,69.0690789 56.2277228,69.2072368 C56.0374004,70.1730702 56.1914869,71.1748286 56.6633663,72.0394737 C57.2907142,73.0477772 58.3286489,73.7326514 59.5049505,73.9144737 C59.7975692,73.979129 60.0963184,74.0122142 60.3960396,74.0131579 C61.1078617,74.0366033 61.8064069,73.8172854 62.3762376,73.3914474 C63.159587,72.7496966 63.6950359,71.856729 63.8910891,70.8651316 L67.6237624,53.8815789 L76.5346535,53.8815789 L76.5346535,72.4342105 L69.2079208,72.4342105 C68.7923402,72.4342106 68.4554456,72.769997 68.4554456,73.1842105 C68.4554456,73.5984241 68.7923402,73.9342105 69.2079208,73.9342105 L85.1980198,73.9342105 C85.6136004,73.9342105 85.950495,73.5984241 85.950495,73.1842105 C85.950495,72.769997 85.6136004,72.4342105 85.1980198,72.4342105 L77.9009901,72.4342105 L77.9009901,53.8815789 L79.2772277,53.8815789 C88.9405941,53.7730263 90.6534653,45.4638158 90.6831683,45.3256579 L93.3366337,22.9342105 C94.0594059,16.8355263 98.4554455,14.8026316 98.6435644,14.7039474 C99.0021576,14.522937 99.1614856,14.0980293 99.009901,13.7269737 Z M59.1782178,24 C57.4587586,24.3566385 55.7204869,23.480122 54.990099,21.8881579 L50.2772277,12.4638158 C49.9879119,11.8837209 49.8974811,11.2250546 50.019802,10.5888158 C50.1705125,10.0619313 50.5272536,9.61747168 51.009901,9.35526316 C52.8514851,8.30921053 54.039604,10.4506579 54.1980198,10.7368421 L59.6534653,19.8256579 L72.6138614,18.1480263 L70.990099,22.3914474 L59.1782178,24 Z" id="Shape" fill="#A8C5DD"></path>
                <path d="M75.2475248,33.8388158 L23.7623762,33.8388158 C23.3522638,33.8388158 23.019802,34.170184 23.019802,34.5789474 C23.019802,34.9877108 23.3522638,35.3190789 23.7623762,35.3190789 L48.8118812,35.3190789 L48.8118812,72.5230263 L45.5445545,72.5230263 C45.1317079,72.5230263 44.7970297,72.8566036 44.7970297,73.2680921 C44.7970297,73.6795806 45.1317079,74.0131579 45.5445545,74.0131579 L53.5841584,74.0131579 C53.9942709,74.0131579 54.3267327,73.6817897 54.3267327,73.2730263 C54.3267327,72.8642629 53.9942709,72.5328947 53.5841584,72.5328947 L50.2376238,72.5328947 L50.2376238,35.3190789 L75.2475248,35.3190789 C75.6576372,35.3190789 75.990099,34.9877108 75.990099,34.5789474 C75.990099,34.170184 75.6576372,33.8388158 75.2475248,33.8388158 Z" id="Path" fill="#2969F6"></path>
                <path d="M74.3564356,16.9144737 C70.029703,16.9144737 66.5148515,13.1151316 66.5148515,8.45723684 C66.5148515,3.79934211 70.029703,0 74.3564356,0 C78.6831683,0 82.1782178,3.78947368 82.1782178,8.45723684 C82.1782178,13.125 78.6831683,16.9144737 74.3564356,16.9144737 Z M74.3564356,1.5 C70.6487145,1.6496803 67.761525,4.76129523 67.9009901,8.45723684 C67.6265789,10.9188257 68.7897007,13.3198068 70.8944148,14.6364316 C72.9991288,15.9530563 75.6741385,15.9530563 77.7788526,14.6364316 C79.8835667,13.3198068 81.0466885,10.9188257 80.7722772,8.45723684 C80.9066762,4.77804198 78.0459974,1.67596728 74.3564356,1.5 Z" id="Shape" fill="#032663"></path>
            </g>
        </g>
    </g>
</svg>

<svg width="100" height="75" xmlns="http://www.w3.org/2000/svg"><g fill-rule="nonzero" fill="none"><path d="M21.634 24.592a.798.798 0 00-.327.987l4.218 9.306c.105.252.35.418.624.424a.665.665 0 00.297-.079.768.768 0 00.316-.987l-4.208-9.315a.662.662 0 00-.92-.336z" fill="#A8C5DD"/><path d="M41.05 33.829a.751.751 0 100 1.5c2.069 0 3.356-.622 3.356-3.72a3.073 3.073 0 00-.802-2.172 3.84 3.84 0 00-2.743-.986H30.396l-4.752-12.435a.672.672 0 00-.901-.404.544.544 0 00-.189.138 5.262 5.262 0 00-5.534.227c-4.871 3.227-5.733 12.553-5.772 12.977l-.525 12.69c-.139 4.422.752 7.757 2.663 9.87a9.424 9.424 0 01-5.574-6.415L7.168 22.747c-.802-6.958-5.93-9.336-6.178-9.434a.685.685 0 00-.9.414.769.769 0 00.375.987 10.25 10.25 0 015.307 8.23l2.693 22.45c1.278 5.09 5.926 8.617 11.188 8.488h1.585v18.552H13.94a.751.751 0 100 1.5h15.99a.751.751 0 100-1.5h-7.307V53.882h8.91l3.763 16.944a4.399 4.399 0 001.525 2.565 3.14 3.14 0 001.93.623c.304-.001.606-.034.901-.1a4.08 4.08 0 002.822-1.875c.47-.858.627-1.851.446-2.812 0-.168-3.337-16.668-4.03-21.197a6.18 6.18 0 00-5.693-5.438h-4.792a2.974 2.974 0 01-2.09-1.066c-1.197-1.302-1.742-3.71-1.583-6.908a.696.696 0 00-1.386-.079c-.179 3.73.495 6.445 1.98 8.083a4.332 4.332 0 003.109 1.5h4.732a4.725 4.725 0 014.357 4.233c.703 4.52 4.06 21.05 4.06 21.237a2.48 2.48 0 01-.258 1.668 2.764 2.764 0 01-1.931 1.184 2.204 2.204 0 01-1.836-.345 2.189 2.189 0 01-.907-1.629l-4.049-18.088H20.04a5.362 5.362 0 01-3.654-1.905c-1.643-1.855-2.406-4.816-2.277-8.813l.515-12.641c0-.089.841-8.97 5.148-11.842a3.97 3.97 0 015.03.503l4.663 12.217h11.416a2.62 2.62 0 011.763.622c.266.297.402.688.376 1.086 0 2.131-.565 2.22-1.97 2.22z" fill="#A8C5DD"/><path d="M24.752 16.914c-4.326 0-7.851-3.799-7.851-8.457C16.901 3.8 20.455 0 24.752 0c4.298 0 7.921 3.79 7.921 8.457 0 4.668-3.564 8.457-7.92 8.457zm0-15.414c-3.697.166-6.57 3.27-6.435 6.957-.106 3.679 2.776 6.758 6.465 6.908 3.688-.15 6.567-3.23 6.456-6.908a6.698 6.698 0 00-1.796-4.818 6.742 6.742 0 00-4.69-2.139z" fill="#032663"/><path d="M72.99 35.329a.693.693 0 00.624-.424l4.208-9.306a.778.778 0 00-.317-.987.675.675 0 00-.92.345l-4.209 9.296a.768.768 0 00.317.987c.09.053.192.083.297.089z" fill="#A8C5DD"/><path d="M99.01 13.727a.672.672 0 00-.901-.415 11.603 11.603 0 00-6.139 9.385L89.317 45.07a9.621 9.621 0 01-5.555 6.434c1.901-2.151 2.792-5.477 2.654-9.868l-.525-12.622c0-.316.228-7.747-3.812-11.556-2.03-1.904-4.742-2.546-8.07-1.895h-.068l-.13.06-.108.079-.09.098a.562.562 0 00-.078.129v.059l-.337.888a.704.704 0 00-.564-.217l-12.238 1.569-4.95-8.26c-.654-1.283-2.545-3.345-5.01-1.974a3.486 3.486 0 00-1.733 2.142 4.506 4.506 0 00.386 3.02l4.703 9.414a5.18 5.18 0 004.594 2.96c.333.001.665-.035.99-.108l11.06-1.44-1.693 4.43H58.297a3.82 3.82 0 00-2.762.987 3.073 3.073 0 00-.802 2.171c0 3.099 1.287 3.72 3.356 3.72a.751.751 0 100-1.5c-1.406 0-1.98-.088-1.98-2.22-.026-.397.11-.789.376-1.085a2.63 2.63 0 011.782-.622h11.406l4.95-12.957c2.724-.444 4.951.088 6.545 1.618 3.545 3.326 3.347 10.293 3.337 10.421l.525 12.681c.128 3.947-.624 6.908-2.258 8.783a5.352 5.352 0 01-3.673 1.974H66.535l-4.03 18.167a2.89 2.89 0 01-.99 1.609 2.154 2.154 0 01-1.792.286 2.754 2.754 0 01-1.921-1.164 2.549 2.549 0 01-.267-1.708c0-.167 3.336-16.697 4.04-21.266a4.765 4.765 0 014.316-4.184h4.743a4.312 4.312 0 003.138-1.5c1.485-1.638 2.159-4.352 1.98-8.083a.741.741 0 00-.722-.71.731.731 0 00-.664.79c.159 3.217-.386 5.615-1.554 6.907a2.974 2.974 0 01-2.149 1.086h-4.762a6.16 6.16 0 00-5.653 5.427c-.694 4.53-3.96 21.03-4.02 21.168a4.212 4.212 0 00.435 2.832 4.08 4.08 0 002.842 1.875c.293.065.591.098.891.1a3.136 3.136 0 001.98-.623 4.36 4.36 0 001.515-2.526l3.733-16.983h8.91v18.552h-7.326a.751.751 0 100 1.5h15.99a.751.751 0 100-1.5h-7.297V53.882h1.376c9.664-.109 11.376-8.418 11.406-8.556l2.654-22.392c.722-6.098 5.118-8.131 5.307-8.23a.769.769 0 00.366-.977zM59.178 24a3.766 3.766 0 01-4.188-2.112l-4.713-9.424a2.952 2.952 0 01-.257-1.875c.15-.527.507-.972.99-1.234 1.841-1.046 3.03 1.096 3.188 1.382l5.455 9.089 12.96-1.678-1.623 4.243L59.178 24z" fill="#A8C5DD"/><path d="M75.248 33.839H23.762a.741.741 0 100 1.48h25.05v37.204h-3.267a.746.746 0 100 1.49h8.04a.741.741 0 100-1.48h-3.347V35.319h25.01a.741.741 0 100-1.48z" fill="#2969F6"/><path d="M74.356 16.914c-4.326 0-7.841-3.799-7.841-8.457C66.515 3.8 70.03 0 74.356 0c4.327 0 7.822 3.79 7.822 8.457 0 4.668-3.495 8.457-7.822 8.457zm0-15.414c-3.707.15-6.594 3.261-6.455 6.957a6.447 6.447 0 002.993 6.18 6.493 6.493 0 006.885 0 6.447 6.447 0 002.993-6.18c.135-3.679-2.726-6.781-6.416-6.957z" fill="#032663"/></g></svg>
